X: 1
T: Katherine Oggie
S: from Elke Baker "Glenelg"
Z: arr. T. Traub 11-21-2010
M: 4/4
L: 1/8
R: reel
K: Am
|: E2 |\
"Am"E2 A2 A2 GA | "Am"B2 A2 A2 Bc | "G"d3 e dcBA | "G"G4 B2 AG |\
"Am"E2 A2 A2 GA | "Am"B2 A2 A2 ga | "Am"bage "Em"gedB | "Am"A4 A2 :|
|: g2 |\
"G"gaba bage | "G"dege gedB | "G"ABdB dBAG | "G"G2 GA B2 AG |\
"C"c2 Bc "G"d2 cd | "C"e2 de "Em"g2 eg | "Am"a2 ge "Em"gedB | "Am"A4 A2 :|
